src/lib/packages/icons/src/assets/line/image-upload.svg

<svg width="24" height="24" viewBox="0 0 24 24" fill="none" xmlns="http://www.w3.org/2000/svg">
<path d="M21 10.2501C20.586 10.2501 20.25 10.5861 20.25 11.0001V13.1891L16.24 9.18005C15.58 8.51905 14.42 8.51905 13.76 9.18005L9 13.9391L8.23999 13.18C7.57999 12.519 6.42001 12.519 5.76001 13.18L3.75 15.1901V7.00012C3.75 5.42312 4.423 4.75012 6 4.75012H14C14.414 4.75012 14.75 4.41412 14.75 4.00012C14.75 3.58612 14.414 3.25012 14 3.25012H6C3.582 3.25012 2.25 4.58212 2.25 7.00012V17.0001C2.25 19.4181 3.582 20.7501 6 20.7501H18C20.418 20.7501 21.75 19.4181 21.75 17.0001V11.0001C21.75 10.5861 21.414 10.2501 21 10.2501ZM18 19.2501H6C4.528 19.2501 3.85197 18.6541 3.76697 17.2931L6.81995 14.2401C6.94695 14.1141 7.05196 14.1141 7.17896 14.2401L8.11804 15.1791C8.58504 15.6471 9.41403 15.6461 9.87903 15.1791L14.819 10.2391C14.946 10.1131 15.051 10.1131 15.178 10.2391L20.248 15.3092V17.0001C20.25 18.5771 19.577 19.2501 18 19.2501ZM17.47 5.03014C17.177 4.73714 17.177 4.26211 17.47 3.96911L18.97 2.46911C19.039 2.40011 19.122 2.345 19.214 2.307C19.397 2.231 19.604 2.231 19.787 2.307C19.879 2.345 19.962 2.40011 20.031 2.46911L21.531 3.96911C21.824 4.26211 21.824 4.73714 21.531 5.03014C21.385 5.17614 21.193 5.25012 21.001 5.25012C20.809 5.25012 20.6169 5.17714 20.4709 5.03014L20.251 4.81017V7.00012C20.251 7.41412 19.915 7.75012 19.501 7.75012C19.087 7.75012 18.751 7.41412 18.751 7.00012V4.81115L18.531 5.03112C18.237 5.32312 17.763 5.32314 17.47 5.03014ZM8 7.75012C8.69 7.75012 9.25 8.31012 9.25 9.00012C9.25 9.69012 8.69 10.2501 8 10.2501C7.31 10.2501 6.75 9.69012 6.75 9.00012C6.75 8.31012 7.31 7.75012 8 7.75012Z" fill="currentColor"/>
</svg>

<svg xmlns="http://www.w3.org/2000/svg" width="24" height="24" fill="none"><path fill="currentColor" d="M21 10.25a.75.75 0 0 0-.75.75v2.19l-4.01-4.01c-.66-.66-1.82-.66-2.48 0L9 13.94l-.76-.76c-.66-.661-1.82-.661-2.48 0l-2.01 2.01V7c0-1.577.673-2.25 2.25-2.25h8a.75.75 0 0 0 0-1.5H6C3.582 3.25 2.25 4.582 2.25 7v10c0 2.418 1.332 3.75 3.75 3.75h12c2.418 0 3.75-1.332 3.75-3.75v-6a.75.75 0 0 0-.75-.75Zm-3 9H6c-1.472 0-2.148-.596-2.233-1.957L6.82 14.24c.127-.126.232-.126.359 0l.939.94c.467.467 1.296.466 1.761 0l4.94-4.94c.127-.127.232-.127.359 0l5.07 5.07V17c.002 1.577-.671 2.25-2.248 2.25Zm-.53-14.22a.75.75 0 0 1 0-1.06l1.5-1.5a.75.75 0 0 1 .817-.163.75.75 0 0 1 .244.162l1.5 1.5a.75.75 0 0 1-1.06 1.061l-.22-.22V7a.75.75 0 0 1-1.5 0V4.811l-.22.22a.751.751 0 0 1-1.061 0ZM8 7.75a1.25 1.25 0 1 1 0 2.501 1.25 1.25 0 0 1 0-2.5Z"/></svg>
